X: 11201
T: MICHAEL WIGGINS
%R: jig
B: "Edinburgh Repository of Music" v.1 p.120 #1
F: http://digital.nls.uk/special-collections-of-printed-music/pageturner.cfm?id=87776133
Z: 2015 John Chambers <jc:trillian.mit.edu>
M: 6/8
L: 1/8
K: G
d !segno!|\
b>c'b bag | gfe d2d | b>c'b bag | c'az z2d |\
b>c'b bag | gfe dBc | d>ed def | agz z2 "_Fine"|]
e/f/ |\
ged cfg | afd dfa | bge ^cag | faz z2a |\
d'2a d'2a | d'af dfa | bge ^cag | f<dz z2d !segno!|]

%%sep 2 1 500
%%sep 1 1 500

